static/img/kroki/83aff5a8672a5bc73f6ed13510268f45.svg

<?xml version="1.0" encoding="us-ascii" standalone="no"?><svg xmlns="http://www.w3.org/2000/svg" xmlns:xlink="http://www.w3.org/1999/xlink" contentStyleType="text/css" height="152px" preserveAspectRatio="none" style="width:409px;height:152px;" version="1.1" viewBox="0 0 409 152" width="409px" zoomAndPan="magnify"><defs/><g><!--class azure_container_service_fleet--><g id="elem_azure_container_service_fleet"><rect codeLine="23" fill="#3D176E" height="39.7891" id="azure_container_service_fleet" rx="2.5" ry="2.5" style="stroke:#000D19;stroke-width:0.5;" width="290" x="59.5" y="7"/><ellipse cx="74.5" cy="26.8945" fill="#ADD1B2" rx="11" ry="11" style="stroke:#181818;stroke-width:1.0;"/><path d="M77.4688,32.5352 Q76.8906,32.832 76.25,32.9727 Q75.6094,33.1289 74.9063,33.1289 Q72.4063,33.1289 71.0781,31.4883 Q69.7656,29.832 69.7656,26.707 Q69.7656,23.582 71.0781,21.9258 Q72.4063,20.2695 74.9063,20.2695 Q75.6094,20.2695 76.25,20.4258 Q76.9063,20.582 77.4688,20.8789 L77.4688,23.5977 Q76.8438,23.0195 76.25,22.7539 Q75.6563,22.4727 75.0313,22.4727 Q73.6875,22.4727 73,23.5508 Q72.3125,24.6133 72.3125,26.707 Q72.3125,28.8008 73,29.8789 Q73.6875,30.9414 75.0313,30.9414 Q75.6563,30.9414 76.25,30.6758 Q76.8438,30.3945 77.4688,29.8164 L77.4688,32.5352 Z " fill="#000000"/><text fill="#D9B8FF" font-family="Helvetica" font-size="17" lengthAdjust="spacing" textLength="248" x="93.5" y="32.7798">azure_container_service_fleet</text></g><!--class azure_container_service_managed_cluster--><g id="elem_azure_container_service_managed_cluster"><rect codeLine="26" fill="#3D176E" height="39.7891" id="azure_container_service_managed_cluster" rx="2.5" ry="2.5" style="stroke:#000D19;stroke-width:0.5;" width="395" x="7" y="106.79"/><ellipse cx="22" cy="126.6845" fill="#ADD1B2" rx="11" ry="11" style="stroke:#181818;stroke-width:1.0;"/><path d="M24.9688,132.3252 Q24.3906,132.622 23.75,132.7627 Q23.1094,132.9189 22.4063,132.9189 Q19.9063,132.9189 18.5781,131.2783 Q17.2656,129.622 17.2656,126.497 Q17.2656,123.372 18.5781,121.7158 Q19.9063,120.0595 22.4063,120.0595 Q23.1094,120.0595 23.75,120.2158 Q24.4063,120.372 24.9688,120.6689 L24.9688,123.3877 Q24.3438,122.8095 23.75,122.5439 Q23.1563,122.2627 22.5313,122.2627 Q21.1875,122.2627 20.5,123.3408 Q19.8125,124.4033 19.8125,126.497 Q19.8125,128.5908 20.5,129.6689 Q21.1875,130.7314 22.5313,130.7314 Q23.1563,130.7314 23.75,130.4658 Q24.3438,130.1845 24.9688,129.6064 L24.9688,132.3252 Z " fill="#000000"/><text fill="#D9B8FF" font-family="Helvetica" font-size="17" lengthAdjust="spacing" textLength="353" x="41" y="132.5698">azure_container_service_managed_cluster</text></g><!--link azure_container_service_fleet to azure_container_service_managed_cluster--><g id="link_azure_container_service_fleet_azure_container_service_managed_cluster"><path codeLine="29" d="M204.5,47.22 C204.5,64.36 204.5,83.27 204.5,100.41 " fill="none" id="azure_container_service_fleet-to-azure_container_service_managed_cluster" style="stroke:#1A83AF;stroke-width:2.0;"/><polygon fill="#1A83AF" points="204.5,106.41,208.5,97.41,204.5,101.41,200.5,97.41,204.5,106.41" style="stroke:#1A83AF;stroke-width:2.0;"/></g><!--SRC=[ZP11Jm8n48Nl-okQS2PX9GfSJ5OIeXTYn9incw5zXORTbaox433-TrbHKtS5lFPzVVFDB8s2GBaEEr6Yd8DzubV6hecf51cpsuvTuLXqj2RT7pJ3YRFX8Z2b4k8UnGR1I6eIpqiZLnRUYwiekYEvMh2hh3hM1oRh3n5iYAXnGTvd8R2PLm6HZ1hDXretoMPffw_ImGrQc6C5_a9wlPvAHqtaugYpU_yGCxE7IEEZJLr0IxCrufCwQraJaMHhqU_yfECZAMNiGbn7Rqz79xRWN- -p9IcthMbDXO_7-0262xirngsjC1egFVWJVZW59x8-dQ1znSZbmP_CGIRtu8sHo7K11F6M9EyNm98iBQ1oMLJrrEENywtTbqwQ3VlPvBLx-z_Uv0C0]--></g></svg>

<svg xmlns="http://www.w3.org/2000/svg" width="409" height="152" viewBox="0 0 409 152"><rect width="290" height="39.789" x="59.5" y="7" fill="#3D176E" rx="2.5" ry="2.5" style="stroke:#000d19;stroke-width:.5"/><circle cx="74.5" cy="26.895" r="11" fill="#ADD1B2" style="stroke:#181818;stroke-width:1"/><path d="M77.469 32.535q-.578.297-1.219.438-.64.156-1.344.156-2.5 0-3.828-1.64-1.312-1.657-1.312-4.782t1.312-4.781q1.328-1.656 3.828-1.656.703 0 1.344.156.656.156 1.219.453v2.719q-.625-.578-1.219-.844-.594-.281-1.219-.281-1.344 0-2.031 1.078-.687 1.062-.687 3.156T73 29.879q.688 1.062 2.031 1.062.625 0 1.219-.265.594-.281 1.219-.86z"/><text x="93.5" y="32.78" fill="#D9B8FF" font-family="Helvetica" font-size="17" textLength="248">azure_container_service_fleet</text><rect width="395" height="39.789" x="7" y="106.79" fill="#3D176E" rx="2.5" ry="2.5" style="stroke:#000d19;stroke-width:.5"/><circle cx="22" cy="126.684" r="11" fill="#ADD1B2" style="stroke:#181818;stroke-width:1"/><path d="M24.969 132.325q-.578.297-1.219.438-.64.156-1.344.156-2.5 0-3.828-1.64-1.312-1.657-1.312-4.782t1.312-4.781q1.328-1.656 3.828-1.656.703 0 1.344.156.656.156 1.219.453v2.719q-.625-.579-1.219-.844-.594-.281-1.219-.281-1.343 0-2.031 1.078-.687 1.062-.687 3.156t.687 3.172q.688 1.062 2.031 1.062.625 0 1.219-.265.594-.281 1.219-.86z"/><text x="41" y="132.57" fill="#D9B8FF" font-family="Helvetica" font-size="17" textLength="353">azure_container_service_managed_cluster</text><path fill="none" d="M204.5 47.22v53.19" style="stroke:#1a83af;stroke-width:2"/><path fill="#1A83AF" d="m204.5 106.41 4-9-4 4-4-4z" style="stroke:#1a83af;stroke-width:2"/></svg>
